svgs/sharp-light/block-quote.svg

<svg xmlns="http://www.w3.org/2000/svg" viewBox="0 0 448 512"><!--! Font Awesome Pro 6.6.0 by @fontawesome - https://fontawesome.com License - https://fontawesome.com/license (Commercial License) Copyright 2024 Fonticons, Inc. --><path d="M16 80L0 80l0 32 16 0 416 0 16 0 0-32-16 0L16 80zM144 240l-16 0 0 32 16 0 288 0 16 0 0-32-16 0-288 0zM128 400l0 32 16 0 288 0 16 0 0-32-16 0-288 0-16 0zM0 432l0 16 32 0 0-16 0-192 0-16L0 224l0 16L0 432z"/></svg>

<svg xmlns="http://www.w3.org/2000/svg" viewBox="0 0 448 512"><!--! Font Awesome Pro 6.5.2 by @fontawesome - https://fontawesome.com License - https://fontawesome.com/license (Commercial License) Copyright 2024 Fonticons, Inc. --><path d="M16 80H0v32H16 432h16V80H432 16zM144 240H128v32h16H432h16V240H432 144zM128 400v32h16H432h16V400H432 144 128zM0 432v16H32V432l0-192 0-16H0v16V432z"/></svg>
